!!!OTL: 127. Freylekhs
!!!Genre:	Freylekh
!!!Mode:	Minor
!!!Listening/dance:	dance
!!!:	*B-:
!!!One_Mode:	no
**kern
*thru
*I"P1
*clefG2
*k[b-e-]
*g:
*M2/4
*>A
=1
!LO:TX:a:i:t=G-minor
8gL
8dJ
4g
=2
8r
8dL
8g
8b-J
=3
16ddLL
16ddJ
8b-J
8aL
8gJ
=4
16aLL
16b-J
8ccJ
16b-LL
16aJ
8gJ
=5
8gL
8dJ
4g
=6
8r
8dL
8g
8b-J
=7
16ddLL
16ddJ
8b-J
8aL
8gJ
*>A1
=8
4g
4gg
*>A
=1
!LO:TX:a:i:t=G-minor
8gL
8dJ
4g
=2
8r
8dL
8g
8b-J
=3
16ddLL
16ddJ
8b-J
8aL
8gJ
=4
16aLL
16b-J
8ccJ
16b-LL
16aJ
8gJ
=5
8gL
8dJ
4g
=6
8r
8dL
8g
8b-J
=7
16ddLL
16ddJ
8b-J
8aL
8gJ
*>A2
=9:|!
2g
!!!Begin-Modulation
*-
